static/image/slider.svg

<svg width="32" height="16" viewBox="0 0 32 16" fill="none" xmlns="http://www.w3.org/2000/svg">
<path fill-rule="evenodd" clip-rule="evenodd" d="M5 0C2.23858 0 0 2.23858 0 5V11C0 13.7614 2.23858 16 5 16H27C29.7614 16 32 13.7614 32 11V5C32 2.23858 29.7614 0 27 0H5ZM9 5C9 4.44772 9.44771 4 10 4C10.5523 4 11 4.44772 11 5V11C11 11.5523 10.5523 12 10 12C9.44771 12 9 11.5523 9 11V5ZM16 4C15.4477 4 15 4.44772 15 5V11C15 11.5523 15.4477 12 16 12C16.5523 12 17 11.5523 17 11V5C17 4.44772 16.5523 4 16 4ZM22 4C21.4477 4 21 4.44772 21 5V11C21 11.5523 21.4477 12 22 12C22.5523 12 23 11.5523 23 11V5C23 4.44772 22.5523 4 22 4Z" fill="white"/>
</svg>

<svg width="32" height="16" fill="none" xmlns="http://www.w3.org/2000/svg"><path fill-rule="evenodd" clip-rule="evenodd" d="M5 0a5 5 0 00-5 5v6a5 5 0 005 5h22a5 5 0 005-5V5a5 5 0 00-5-5H5zm4 5a1 1 0 112 0v6a1 1 0 11-2 0V5zm7-1a1 1 0 00-1 1v6a1 1 0 102 0V5a1 1 0 00-1-1zm6 0a1 1 0 00-1 1v6a1 1 0 102 0V5a1 1 0 00-1-1z" fill="#fff"/></svg>
